airbyte-config/init/src/main/resources/icons/harness.svg

<?xml version="1.0" encoding="UTF-8" standalone="no"?>
<svg
   width="31.800911"
   height="32"
   viewBox="0 0 31.800911 32"
   fill="none"
   version="1.1"
   id="svg206"
   sodipodi:docname="harness.svg"
   inkscape:version="1.2.1 (9c6d41e410, 2022-07-14, custom)"
   xmlns:inkscape="http://www.inkscape.org/namespaces/inkscape"
   xmlns:sodipodi="http://sodipodi.sourceforge.net/DTD/sodipodi-0.dtd"
   xmlns="http://www.w3.org/2000/svg"
   xmlns:svg="http://www.w3.org/2000/svg">
  <sodipodi:namedview
     id="namedview208"
     pagecolor="#ffffff"
     bordercolor="#666666"
     borderopacity="1.0"
     inkscape:showpageshadow="2"
     inkscape:pageopacity="0.0"
     inkscape:pagecheckerboard="0"
     inkscape:deskcolor="#d1d1d1"
     showgrid="false"
     inkscape:zoom="9.2945205"
     inkscape:cx="72.946205"
     inkscape:cy="16.030951"
     inkscape:window-width="3840"
     inkscape:window-height="2083"
     inkscape:window-x="0"
     inkscape:window-y="40"
     inkscape:window-maximized="1"
     inkscape:current-layer="svg206" />
  <path
     d="M 29.414,10.4764 21.4005,2.40469 C 20.4515,1.50213 19.3211,0.814856 18.0856,0.389233 15.3478,-0.527786 12.623,0.188012 10.4164,2.40469 L 2.38323,10.4764 c -0.89714,0.9548 -1.580297,2.092 -2.003365,3.335 -0.914796,2.7543 -0.203288,5.4955 2.003365,7.7122 l 8.02327,8.0717 c 0.9475,0.9029 2.0769,1.5902 3.3117,2.0155 0.748,0.2543 1.5318,0.3858 2.3214,0.3892 1.9247,0 3.7674,-0.8181 5.3478,-2.4047 l 8.02,-8.0717 c 0.8983,-0.9545 1.5826,-2.0917 2.0067,-3.335 0.9115,-2.7543 0.2,-5.4922 -2.0067,-7.7122 z M 16.515,4.74672 c 0.6061,0.1955 1.1647,0.51691 1.6394,0.94341 L 20.525,8.07834 15.9019,12.7261 11.2787,8.07503 13.6624,5.67363 C 14.3018,5.0337 15.2035,4.35418 16.5216,4.74342 Z M 4.71776,15.3749 c 0.19494,-0.6102 0.5156,-1.1722 0.94103,-1.6493 l 2.3706,-2.3849 4.62321,4.651 L 8.02611,20.6428 5.6424,18.2414 C 5.00303,17.6015 4.33086,16.6944 4.71449,15.3683 Z M 15.2822,27.2434 C 14.6753,27.0496 14.1164,26.728 13.6428,26.3 l -2.3641,-2.3586 4.6232,-4.6543 4.6231,4.651 -2.3837,2.4014 c -0.6394,0.64 -1.5378,1.3195 -2.8591,0.9303 z M 27.086,16.6383 c -0.1949,0.6095 -0.5143,1.1713 -0.9378,1.6493 l -2.3706,2.3552 -4.6231,-4.6511 4.6231,-4.651 2.3838,2.3981 c 0.6393,0.6399 1.3115,1.547 0.9279,2.8731"
     fill="#00abe4"
     id="path195"
     clip-path="url(#clipPath276)" />
  <defs
     id="defs204">
    <clipPath
       clipPathUnits="userSpaceOnUse"
       id="clipPath270">
      <g
         id="g274">
        <rect
           width="146"
           height="32"
           fill="#ffffff"
           id="rect272"
           x="0"
           y="0" />
      </g>
    </clipPath>
    <clipPath
       clipPathUnits="userSpaceOnUse"
       id="clipPath276">
      <g
         id="g280">
        <rect
           width="146"
           height="32"
           fill="#ffffff"
           id="rect278"
           x="0"
           y="0" />
      </g>
    </clipPath>
  </defs>
</svg>

<svg width="146" height="32" viewBox="0 0 146 32" fill="none" xmlns="http://www.w3.org/2000/svg">
<g clip-path="url(#clip0)">
<path d="M29.414 10.4764L21.4005 2.40469C20.4515 1.50213 19.3211 0.814856 18.0856 0.389233C15.3478 -0.527786 12.623 0.188012 10.4164 2.40469L2.38323 10.4764C1.48609 11.4312 0.802933 12.5684 0.379865 13.8114C-0.534931 16.5657 0.176577 19.3069 2.38323 21.5236L10.4065 29.5953C11.354 30.4982 12.4834 31.1855 13.7182 31.6108C14.4662 31.8651 15.25 31.9966 16.0396 32C17.9643 32 19.807 31.1819 21.3874 29.5953L29.4074 21.5236C30.3057 20.5691 30.99 19.4319 31.4141 18.1886C32.3256 15.4343 31.6141 12.6964 29.4074 10.4764H29.414ZM16.515 4.74672C17.1211 4.94222 17.6797 5.26363 18.1544 5.69013L20.525 8.07834L15.9019 12.7261L11.2787 8.07503L13.6624 5.67363C14.3018 5.0337 15.2035 4.35418 16.5216 4.74342L16.515 4.74672ZM4.71776 15.3749C4.9127 14.7647 5.23336 14.2027 5.65879 13.7256L8.02939 11.3407L12.6526 15.9917L8.02611 20.6428L5.6424 18.2414C5.00303 17.6015 4.33086 16.6944 4.71449 15.3683L4.71776 15.3749ZM15.2822 27.2434C14.6753 27.0496 14.1164 26.728 13.6428 26.3L11.2787 23.9414L15.9019 19.2871L20.525 23.9381L18.1413 26.3395C17.5019 26.9795 16.6035 27.659 15.2822 27.2698V27.2434ZM27.086 16.6383C26.8911 17.2478 26.5717 17.8096 26.1482 18.2876L23.7776 20.6428L19.1545 15.9917L23.7776 11.3407L26.1614 13.7388C26.8007 14.3787 27.4729 15.2858 27.0893 16.6119" fill="#00ABE4"/>
<path d="M46.7201 27.3651H50.8613V15.8034C50.8613 12.2376 48.7071 9.60532 45.0315 9.60532C43.2413 9.60532 41.3231 10.4036 40.3264 11.8715V3.29504H36.1885V27.3552H40.3264V18.2345C40.3264 16.1036 41.3887 13.4383 43.8708 13.4383C46.0578 13.4383 46.7201 14.6687 46.7201 16.671V27.3651ZM63.4422 20.5271C63.4422 23.0703 61.6355 24.4591 59.0748 24.4591C57.7927 24.4591 56.6419 23.6344 56.6419 22.3116C56.6419 20.9229 57.8583 20.1642 59.1075 20.0653L63.4422 19.7354V20.5271ZM66.8915 27.6323C67.5983 27.6555 68.2992 27.4966 68.9277 27.1705V24.1292C68.7556 24.1699 68.5798 24.192 68.403 24.1952C67.7145 24.1952 67.4522 23.8983 67.4522 23.1033V16.7271C67.5039 15.5494 67.3359 14.3724 66.9571 13.2569C65.9734 10.6774 63.475 9.75376 60.5535 9.75376C56.7402 9.75376 53.6843 11.4723 53.4548 15.3383H57.4321C57.5304 13.7517 58.6452 12.8941 60.5535 12.8941C62.8848 12.8941 63.4422 13.9826 63.4422 15.6022V16.6611L58.4124 17.014C55.1598 17.2449 52.6318 19.1285 52.6318 22.4007C52.6318 25.2111 54.7336 27.7874 58.8092 27.7874C61.2388 27.7874 63.2094 26.5999 63.9996 25.2111C64.1307 26.5009 65.1144 27.6224 66.8882 27.6224L66.8915 27.6323ZM79.7937 13.8408C80.0129 13.8424 80.2319 13.8567 80.4495 13.8836V9.99126C80.2724 9.99126 80.0954 9.95168 79.9216 9.95168C77.915 9.95168 75.8788 10.7763 75.0919 12.7588L74.7279 10.1826H71.2425V27.3684H75.3837V18.7095C75.3837 15.9321 76.8952 13.8507 79.7839 13.8507L79.7937 13.8408ZM92.7517 27.375H96.8601V15.8991C96.8601 12.33 94.7223 9.75376 91.0762 9.75376C89.1089 9.75376 87.0695 10.5784 86.0497 12.3927L85.7547 10.1793H82.3151V27.3651H86.4203V20.3621C86.4203 18.9075 86.3875 17.1229 86.9809 15.7672C87.5383 14.5104 88.4925 13.5868 89.9319 13.5868C92.0992 13.5868 92.755 14.8106 92.755 16.826L92.7517 27.375ZM110.343 17.0635H102.959C102.941 16.0946 103.254 15.1488 103.847 14.385C104.189 13.9562 104.625 13.6136 105.121 13.3845C105.618 13.1554 106.161 13.0462 106.706 13.0656C107.183 13.0399 107.66 13.1147 108.107 13.2851C108.554 13.4555 108.96 13.7178 109.3 14.0552C109.956 14.7842 110.32 15.7738 110.352 17.0635H110.343ZM114.458 18.9141C114.523 16.7666 114.228 14.8172 112.979 12.9303C111.569 10.7829 109.267 9.76036 106.749 9.76036C105.74 9.73074 104.735 9.90886 103.797 10.2838C102.859 10.6587 102.007 11.2226 101.293 11.9407C99.6536 13.6263 98.8307 16.0706 98.8307 18.8151C98.8307 21.6255 99.7487 24.0368 101.454 25.6894C102.167 26.3856 103.011 26.9312 103.937 27.2944C104.862 27.6575 105.851 27.8307 106.844 27.8039C109.011 27.8039 111.146 27.1111 112.592 25.3926C113.248 24.5976 113.94 23.2452 114.038 22.2193H110.103C109.965 22.7703 109.681 23.2731 109.28 23.674C108.69 24.2677 107.969 24.4986 106.785 24.4986C105.836 24.4955 104.927 24.1162 104.254 23.4431C103.829 22.9962 103.498 22.4668 103.284 21.8871C103.069 21.3074 102.974 20.6897 103.005 20.0719H114.425C114.425 19.7057 114.458 18.9141 114.458 18.9141ZM119.973 14.9821C119.982 14.5811 120.113 14.1926 120.347 13.868C120.581 13.5434 120.908 13.2981 121.284 13.1645C121.85 12.951 122.455 12.8611 123.058 12.9007C123.874 12.8778 124.669 13.1598 125.291 13.6923C125.72 14.1221 125.967 14.7027 125.979 15.3119H129.891C129.842 13.9851 129.303 12.7243 128.38 11.7758C127.134 10.4168 125.065 9.75706 123.028 9.75706C120.891 9.75706 119.094 10.3838 117.838 11.4756C117.277 11.9467 116.83 12.5389 116.528 13.2083C116.227 13.8777 116.079 14.607 116.097 15.3416C116.097 17.522 117.674 19.4385 120.005 19.9366C121.517 20.2665 123.225 20.3654 124.737 20.5963C125.786 20.7613 126.445 21.421 126.445 22.4139C126.445 24.2974 124.343 24.5943 122.963 24.5943C121.779 24.5943 121.025 24.3634 120.366 23.8356C119.912 23.4264 119.607 22.8759 119.5 22.2721H115.631C115.79 23.6277 116.42 24.8835 117.409 25.8181C118.822 27.1738 120.76 27.7973 122.93 27.7973C125.261 27.7973 127.396 27.2035 128.776 25.8181C129.267 25.325 129.652 24.7361 129.907 24.0876C130.162 23.4392 130.283 22.7449 130.262 22.0478C130.262 19.3363 128.294 17.6177 125.596 17.1889C123.92 16.925 123.494 16.892 121.95 16.6941C121.032 16.5621 119.982 16.196 119.982 14.9755L119.973 14.9821ZM141.741 15.3054H145.639C145.59 13.9785 145.051 12.7177 144.128 11.7692C142.879 10.4168 140.81 9.75706 138.787 9.75706C136.652 9.75706 134.852 10.3838 133.596 11.4756C133.035 11.9467 132.588 12.5389 132.286 13.2083C131.985 13.8777 131.837 14.607 131.855 15.3416C131.855 17.522 133.432 19.4385 135.763 19.9366C137.275 20.2665 138.983 20.3654 140.495 20.5963C141.544 20.7613 142.203 21.421 142.203 22.4139C142.203 24.2974 140.098 24.5943 138.721 24.5943C137.537 24.5943 136.783 24.3634 136.124 23.8356C135.67 23.4264 135.365 22.8759 135.259 22.2721H131.376C131.535 23.6285 132.166 24.8847 133.157 25.8181C134.567 27.1738 136.504 27.7973 138.675 27.7973C141.006 27.7973 143.141 27.2035 144.521 25.8181C145.01 25.3245 145.394 24.7353 145.648 24.0868C145.903 23.4384 146.022 22.7445 146 22.0478C146 19.3363 144.033 17.6177 141.334 17.1889C139.659 16.925 139.232 16.892 137.688 16.6941C136.77 16.5621 135.721 16.196 135.721 14.9755C135.731 14.5745 135.861 14.186 136.096 13.8614C136.33 13.5368 136.656 13.2915 137.032 13.1579C137.598 12.9444 138.203 12.8545 138.806 12.8941C139.622 12.8712 140.418 13.1532 141.039 13.6857C141.469 14.1151 141.717 14.6957 141.731 15.3054" fill="#231F20"/>
</g>
<defs>
<clipPath id="clip0">
<rect width="146" height="32" fill="white"/>
</clipPath>
</defs>
</svg>
